src/assets/inicio/inicio-icon.svg

<svg xmlns="http://www.w3.org/2000/svg" width="24" height="24" fill="none"><g clip-path="url(#a)"><path fill="#FDC500" fill-rule="evenodd" d="M6 23H3V13l8.991-8.005L21 13v10h-3v-9H6v9Zm1-2h10v2H7v-2Zm0-3h10v2H7v-2Zm10-3v2H7v-2h10ZM12 .971l12 10.661-1.328 1.493L12 3.644 1.328 13.125 0 11.632 12 .971Z" clip-rule="evenodd"/></g><defs><clipPath id="a"><path fill="#fff" d="M0 0h24v24H0z"/></clipPath></defs></svg>

<svg width="24" height="24" viewBox="0 0 24 24" fill="none" xmlns="http://www.w3.org/2000/svg">
<g clip-path="url(#clip0_136_10)">
<path fill-rule="evenodd" clip-rule="evenodd" d="M6 23H3V13L11.991 4.99501L21 13V23H18V14H6V23ZM7 21H17V23H7V21ZM7 18H17V20H7V18ZM17 15V17H7V15H17ZM12 0.971008L24 11.632L22.672 13.125L12 3.64401L1.328 13.125L0 11.632L12 0.971008Z" fill="#FDC500"/>
</g>
<defs>
<clipPath id="clip0_136_10">
<rect width="24" height="24" fill="white"/>
</clipPath>
</defs>
</svg>
